;FLAVOR:Marlin
;TIME:693
;Filament used: 0.428421m
;Layer height: 0.2
;MINX:21.428
;MINY:21.428
;MINZ:0.2
;MAXX:213.572
;MAXY:213.572
;MAXZ:0.2
;Generated with Cura_SteamEngine main
M140 S50
M105
M190 S50
M104 S200
M105
M109 S200
M82 ;absolute extrusion mode
; Ender 3 Custom Start G-code
G92 E0 ; Reset Extruder
G28 ; Home all axes
G1 Z2.0 F3000 ; Move Z Axis up little to prevent scratching of Heat Bed
G1 X0.1 Y20 Z0.3 F5000.0 ; Move to start position
G1 X0.1 Y200.0 Z0.3 F1500.0 E15 ; Draw the first line
G1 X0.4 Y200.0 Z0.3 F5000.0 ; Move to side a little
G1 X0.4 Y20 Z0.3 F1500.0 E30 ; Draw the second line
G92 E0 ; Reset Extruder
G1 Z2.0 F3000 ; Move Z Axis up little to prevent scratching of Heat Bed
G1 X5 Y20 Z0.3 F5000.0 ; Move over to prevent blob squish
G92 E0
G92 E0
G1 F2700 E-5
;LAYER_COUNT:1
;LAYER:0
M107
G0 F6000 X30.69 Y25.003 Z0.2
;TYPE:SKIRT
G1 F2700 E0
G1 F1200 X31.164 Y24.542 E0.02199
G1 X31.863 Y23.918 E0.05316
G1 X32.614 Y23.355 E0.08437
G1 X33.409 Y22.858 E0.11556
G1 X34.244 Y22.431 E0.14675
G1 X35.112 Y22.076 E0.17794
G1 X36.008 Y21.797 E0.20915
G1 X36.923 Y21.595 E0.24032
G1 X37.853 Y21.472 E0.27152
G1 X38.79 Y21.428 E0.30272
G1 X39.727 Y21.464 E0.33391
G1 X40.658 Y21.58 E0.36511
G1 X41.575 Y21.775 E0.39629
G1 X42.473 Y22.048 E0.42751
G1 X43.344 Y22.395 E0.4587
G1 X44.182 Y22.816 E0.48989
G1 X44.981 Y23.307 E0.52108
G1 X45.736 Y23.864 E0.55228
G1 X46.38 Y24.426 E0.58071
G1 X46.822 Y24.849 E0.60106
G1 X54.492 Y32.519 E0.96184
G1 X56.364 Y34.338 E1.04865
G1 X58.222 Y36.045 E1.13257
G1 X60.149 Y37.715 E1.21738
G1 X62.083 Y39.302 E1.30059
G1 X64.051 Y40.823 E1.38332
G1 X66.119 Y42.33 E1.46842
G1 X68.156 Y43.727 E1.55058
G1 X70.31 Y45.119 E1.63588
G1 X72.418 Y46.397 E1.71787
G1 X74.64 Y47.66 E1.80288
G1 X76.862 Y48.84 E1.88656
G1 X79.114 Y49.957 E1.97017
G1 X81.407 Y51.012 E2.05412
G1 X83.707 Y51.995 E2.13731
G1 X86.064 Y52.923 E2.22156
G1 X88.418 Y53.774 E2.30481
G1 X90.817 Y54.565 E2.38883
G1 X93.212 Y55.282 E2.47198
G1 X95.669 Y55.941 E2.55659
G1 X98.117 Y56.523 E2.64028
G1 X100.587 Y57.037 E2.72419
G1 X103.042 Y57.478 E2.80715
G1 X105.52 Y57.85 E2.89049
G1 X108.048 Y58.157 E2.97519
G1 X110.552 Y58.389 E3.05883
G1 X113.034 Y58.548 E3.14156
G1 X115.557 Y58.638 E3.22552
G1 X118.083 Y58.658 E3.30954
G1 X120.611 Y58.605 E3.39364
G1 X123.118 Y58.483 E3.47712
G1 X125.617 Y58.288 E3.56049
G1 X128.133 Y58.022 E3.64464
G1 X130.645 Y57.684 E3.72894
G1 X133.073 Y57.286 E3.81078
G1 X135.583 Y56.803 E3.89579
G1 X138.059 Y56.252 E3.98016
G1 X140.463 Y55.647 E4.06261
G1 X142.872 Y54.967 E4.14586
G1 X145.313 Y54.202 E4.23095
G1 X147.685 Y53.384 E4.3144
G1 X150.046 Y52.496 E4.3983
G1 X152.372 Y51.544 E4.48189
G1 X154.654 Y50.533 E4.5649
G1 X156.943 Y49.442 E4.64924
G1 X159.174 Y48.299 E4.73262
G1 X161.41 Y47.073 E4.81743
G1 X163.56 Y45.813 E4.90032
G1 X165.688 Y44.485 E4.98374
G1 X167.793 Y43.087 E5.06779
G1 X169.854 Y41.633 E5.15168
G1 X171.857 Y40.132 E5.23493
G1 X173.838 Y38.559 E5.31907
G1 X175.751 Y36.949 E5.40223
G1 X177.66 Y35.247 E5.48729
G1 X179.479 Y33.532 E5.57044
G1 X180.439 Y32.588 E5.61522
G1 X187.915 Y25.111 E5.96689
G1 X188.498 Y24.543 E5.99397
G1 X189.198 Y23.919 E6.02516
G1 X189.948 Y23.356 E6.05635
G1 X190.743 Y22.859 E6.08753
G1 X191.578 Y22.432 E6.11872
G1 X192.447 Y22.077 E6.14995
G1 X193.342 Y21.798 E6.18113
G1 X194.258 Y21.596 E6.21232
G1 X195.187 Y21.473 E6.24349
G1 X196.124 Y21.429 E6.27469
G1 X197.061 Y21.465 E6.30588
G1 X197.992 Y21.581 E6.33708
G1 X198.909 Y21.776 E6.36827
G1 X199.807 Y22.049 E6.39948
G1 X200.678 Y22.396 E6.43067
G1 X201.516 Y22.817 E6.46186
G1 X202.315 Y23.308 E6.49305
G1 X203.07 Y23.865 E6.52426
G1 X203.704 Y24.417 E6.55222
G1 X204.181 Y24.873 E6.57416
G1 X209.98 Y30.673 E6.84695
G1 X210.448 Y31.153 E6.86925
G1 X211.074 Y31.852 E6.90046
G1 X211.637 Y32.601 E6.93163
G1 X212.135 Y33.396 E6.96283
G1 X212.563 Y34.23 E6.99401
G1 X212.919 Y35.098 E7.02521
G1 X213.199 Y35.993 E7.0564
G1 X213.403 Y36.909 E7.08761
G1 X213.527 Y37.838 E7.11879
G1 X213.572 Y38.775 E7.14999
G1 X213.537 Y39.712 E7.18117
G1 X213.422 Y40.643 E7.21237
G1 X213.228 Y41.561 E7.24358
G1 X212.957 Y42.459 E7.27478
G1 X212.61 Y43.33 E7.30596
G1 X212.191 Y44.169 E7.33715
G1 X211.701 Y44.969 E7.36836
G1 X211.145 Y45.724 E7.39954
G1 X210.592 Y46.36 E7.42757
G1 X210.151 Y46.822 E7.44882
G1 X202.481 Y54.492 E7.80959
G1 X200.662 Y56.364 E7.89641
G1 X198.955 Y58.222 E7.98032
G1 X197.285 Y60.149 E8.06514
G1 X195.711 Y62.067 E8.14766
G1 X194.151 Y64.085 E8.23249
G1 X192.694 Y66.086 E8.31482
G1 X191.253 Y68.186 E8.39953
G1 X189.891 Y70.294 E8.483
G1 X188.603 Y72.418 E8.56562
G1 X187.34 Y74.64 E8.65063
G1 X186.16 Y76.862 E8.73431
G1 X185.043 Y79.114 E8.81792
G1 X183.988 Y81.407 E8.90187
G1 X183.005 Y83.707 E8.98506
G1 X182.077 Y86.064 E9.06931
G1 X181.226 Y88.418 E9.15257
G1 X180.435 Y90.817 E9.23658
G1 X179.718 Y93.212 E9.31973
G1 X179.059 Y95.669 E9.40434
G1 X178.477 Y98.117 E9.48803
G1 X177.963 Y100.587 E9.57195
G1 X177.522 Y103.042 E9.65491
G1 X177.15 Y105.52 E9.73825
G1 X176.843 Y108.048 E9.82295
G1 X176.611 Y110.552 E9.90659
G1 X176.452 Y113.034 E9.98931
G1 X176.362 Y115.557 E10.07328
G1 X176.342 Y118.083 E10.1573
G1 X176.395 Y120.611 E10.2414
G1 X176.517 Y123.118 E10.32488
G1 X176.712 Y125.617 E10.40825
G1 X176.978 Y128.133 E10.4924
G1 X177.316 Y130.645 E10.5767
G1 X177.714 Y133.073 E10.65853
G1 X178.197 Y135.583 E10.74355
G1 X178.748 Y138.059 E10.82791
G1 X179.353 Y140.463 E10.91036
G1 X180.033 Y142.872 E10.99362
G1 X180.798 Y145.313 E11.0787
G1 X181.616 Y147.685 E11.16215
G1 X182.504 Y150.046 E11.24605
G1 X183.456 Y152.372 E11.32964
G1 X184.465 Y154.649 E11.41248
G1 X185.558 Y156.943 E11.49699
G1 X186.701 Y159.174 E11.58037
G1 X187.921 Y161.399 E11.66477
G1 X189.198 Y163.58 E11.74883
G1 X190.5 Y165.666 E11.83061
G1 X191.901 Y167.776 E11.91485
G1 X193.379 Y169.87 E12.0001
G1 X194.868 Y171.857 E12.08269
G1 X196.439 Y173.835 E12.1667
G1 X198.07 Y175.773 E12.25095
G1 X199.735 Y177.641 E12.33418
G1 X201.468 Y179.479 E12.4182
G1 X202.405 Y180.432 E12.46265
G1 X209.872 Y187.898 E12.81385
G1 X210.453 Y188.494 E12.84153
G1 X211.078 Y189.193 E12.87272
G1 X211.641 Y189.943 E12.90391
G1 X212.138 Y190.739 E12.93512
G1 X212.566 Y191.573 E12.9663
G1 X212.921 Y192.441 E12.99749
G1 X213.201 Y193.337 E13.02872
G1 X213.403 Y194.252 E13.05988
G1 X213.527 Y195.182 E13.09109
G1 X213.571 Y196.119 E13.12229
G1 X213.535 Y197.056 E13.15347
G1 X213.419 Y197.987 E13.18468
G1 X213.225 Y198.904 E13.21585
G1 X212.953 Y199.802 E13.24706
G1 X212.606 Y200.673 E13.27824
G1 X212.185 Y201.511 E13.30944
G1 X211.695 Y202.311 E13.34064
G1 X211.139 Y203.066 E13.37182
G1 X210.575 Y203.712 E13.40035
G1 X210.119 Y204.189 E13.4223
G1 X204.329 Y209.978 E13.69462
G1 X203.84 Y210.454 E13.71731
G1 X203.14 Y211.079 E13.74852
G1 X202.39 Y211.642 E13.77972
G1 X201.595 Y212.139 E13.8109
G1 X200.76 Y212.567 E13.84211
G1 X199.892 Y212.922 E13.8733
G1 X198.997 Y213.202 E13.90449
G1 X198.081 Y213.404 E13.93569
G1 X197.152 Y213.528 E13.96686
G1 X196.215 Y213.572 E13.99806
G1 X195.278 Y213.536 E14.02925
G1 X194.347 Y213.42 E14.06045
G1 X193.429 Y213.226 E14.09166
G1 X192.532 Y212.954 E14.12283
G1 X191.661 Y212.607 E14.15402
G1 X190.822 Y212.186 E14.18524
G1 X190.023 Y211.696 E14.21641
G1 X189.268 Y211.139 E14.24762
G1 X188.593 Y210.549 E14.27744
G1 X188.171 Y210.143 E14.29691
G1 X180.496 Y202.468 E14.65792
G1 X178.636 Y200.661 E14.74417
G1 X176.761 Y198.939 E14.82885
G1 X174.88 Y197.307 E14.91167
G1 X172.91 Y195.693 E14.99638
G1 X170.949 Y194.177 E15.07882
G1 X168.904 Y192.687 E15.16298
G1 X166.801 Y191.244 E15.24781
G1 X164.707 Y189.891 E15.33073
G1 X162.565 Y188.593 E15.41403
G1 X160.383 Y187.353 E15.4975
G1 X158.136 Y186.159 E15.58213
G1 X155.898 Y185.05 E15.66521
G1 X153.602 Y183.992 E15.74929
G1 X151.258 Y182.992 E15.83405
G1 X148.954 Y182.083 E15.91643
G1 X146.58 Y181.224 E16.0004
G1 X144.196 Y180.438 E16.08389
G1 X141.774 Y179.714 E16.16797
G1 X139.359 Y179.066 E16.25113
G1 X136.885 Y178.478 E16.33571
G1 X134.401 Y177.96 E16.42011
G1 X131.964 Y177.523 E16.50245
G1 X129.476 Y177.15 E16.58613
G1 X126.958 Y176.844 E16.6705
G1 X124.445 Y176.611 E16.75444
G1 X121.965 Y176.452 E16.83709
G1 X119.443 Y176.362 E16.92103
G1 X116.917 Y176.342 E17.00504
G1 X114.389 Y176.395 E17.08914
G1 X111.883 Y176.517 E17.17259
G1 X109.383 Y176.712 E17.256
G1 X106.868 Y176.978 E17.34011
G1 X104.361 Y177.315 E17.42424
G1 X101.915 Y177.716 E17.50669
G1 X99.408 Y178.198 E17.5916
G1 X96.994 Y178.734 E17.67384
G1 X94.508 Y179.361 E17.75911
G1 X92.109 Y180.039 E17.84203
G1 X89.697 Y180.794 E17.92609
G1 X87.313 Y181.616 E18.00997
G1 X84.964 Y182.5 E18.09344
G1 X82.643 Y183.45 E18.17686
G1 X80.333 Y184.472 E18.26087
G1 X78.06 Y185.557 E18.34464
G1 X75.825 Y186.701 E18.42815
G1 X73.6 Y187.921 E18.51255
G1 X71.428 Y189.193 E18.59627
G1 X69.316 Y190.512 E18.67909
G1 X67.224 Y191.901 E18.76261
G1 X65.134 Y193.376 E18.84769
G1 X63.137 Y194.873 E18.9307
G1 X61.165 Y196.439 E19.01445
G1 X59.244 Y198.056 E19.09797
G1 X57.347 Y199.747 E19.18249
G1 X55.518 Y201.471 E19.26609
G1 X54.505 Y202.468 E19.31336
G1 X47.004 Y209.968 E19.66616
G1 X46.501 Y210.457 E19.6895
G1 X45.801 Y211.082 E19.72071
G1 X45.051 Y211.644 E19.75188
G1 X44.255 Y212.141 E19.78309
G1 X43.42 Y212.568 E19.81428
G1 X42.552 Y212.922 E19.84546
G1 X41.656 Y213.202 E19.87668
G1 X40.74 Y213.403 E19.90788
G1 X39.811 Y213.526 E19.93904
G1 X38.874 Y213.57 E19.97024
G1 X37.937 Y213.533 E20.00143
G1 X37.006 Y213.417 E20.03264
G1 X36.089 Y213.222 E20.06382
G1 X35.191 Y212.95 E20.09503
G1 X34.32 Y212.602 E20.12622
G1 X33.482 Y212.181 E20.15741
G1 X32.683 Y211.69 E20.18861
G1 X31.928 Y211.133 E20.21981
G1 X31.305 Y210.591 E20.24728
G1 X30.811 Y210.119 E20.27
G1 X25.012 Y204.319 E20.54279
G1 X24.544 Y203.838 E20.56511
G1 X23.919 Y203.138 E20.59632
G1 X23.356 Y202.388 E20.62752
G1 X22.859 Y201.593 E20.6587
G1 X22.432 Y200.758 E20.68989
G1 X22.077 Y199.89 E20.72108
G1 X21.798 Y198.995 E20.75226
G1 X21.595 Y198.079 E20.78347
G1 X21.472 Y197.149 E20.81467
G1 X21.428 Y196.212 E20.84587
G1 X21.464 Y195.275 E20.87706
G1 X21.58 Y194.344 E20.90826
G1 X21.775 Y193.427 E20.93944
G1 X22.047 Y192.529 E20.97065
G1 X22.394 Y191.658 E21.00184
G1 X22.815 Y190.82 E21.03303
G1 X23.305 Y190.021 E21.0642
G1 X23.862 Y189.266 E21.09541
G1 X24.445 Y188.6 E21.12485
G1 X24.85 Y188.178 E21.1443
G1 X32.53 Y180.498 E21.50554
G1 X34.339 Y178.636 E21.59189
G1 X36.061 Y176.761 E21.67656
G1 X37.693 Y174.88 E21.75939
G1 X39.307 Y172.91 E21.84409
G1 X40.823 Y170.949 E21.92654
G1 X42.313 Y168.904 E22.01069
G1 X43.748 Y166.813 E22.09504
G1 X45.113 Y164.7 E22.17871
G1 X46.404 Y162.57 E22.26155
G1 X47.657 Y160.364 E22.34593
G1 X48.84 Y158.138 E22.42977
G1 X49.95 Y155.898 E22.51292
G1 X51.008 Y153.602 E22.597
G1 X52.008 Y151.258 E22.68176
G1 X52.917 Y148.954 E22.76414
G1 X53.776 Y146.58 E22.84811
G1 X54.562 Y144.196 E22.9316
G1 X55.286 Y141.774 E23.01568
G1 X55.934 Y139.359 E23.09885
G1 X56.522 Y136.885 E23.18343
G1 X57.04 Y134.401 E23.26782
G1 X57.477 Y131.964 E23.35017
G1 X57.85 Y129.476 E23.43384
G1 X58.156 Y126.958 E23.51821
G1 X58.389 Y124.445 E23.60215
G1 X58.548 Y121.965 E23.68481
G1 X58.638 Y119.443 E23.76874
G1 X58.658 Y116.916 E23.85279
G1 X58.605 Y114.388 E23.93689
G1 X58.483 Y111.881 E24.02037
G1 X58.288 Y109.383 E24.10371
G1 X58.021 Y106.863 E24.18799
G1 X57.684 Y104.355 E24.27216
G1 X57.286 Y101.927 E24.35399
G1 X56.8 Y99.402 E24.43952
G1 X56.266 Y96.994 E24.52155
G1 X55.645 Y94.532 E24.606
G1 X54.959 Y92.105 E24.68989
G1 X54.202 Y89.687 E24.77416
G1 X53.384 Y87.314 E24.85765
G1 X52.496 Y84.953 E24.94154
G1 X51.55 Y82.643 E25.02457
G1 X50.528 Y80.333 E25.10858
G1 X49.443 Y78.06 E25.19235
G1 X48.299 Y75.825 E25.27586
G1 X47.079 Y73.6 E25.36026
G1 X45.806 Y71.427 E25.44402
G1 X44.488 Y69.316 E25.5268
G1 X43.099 Y67.224 E25.61032
G1 X41.624 Y65.134 E25.6954
G1 X40.127 Y63.137 E25.77841
G1 X38.561 Y61.165 E25.86216
G1 X36.944 Y59.244 E25.94568
G1 X35.253 Y57.347 E26.0302
G1 X33.529 Y55.518 E26.1138
G1 X32.532 Y54.505 E26.16107
G1 X25.016 Y46.988 E26.51463
G1 X24.54 Y46.498 E26.53735
G1 X23.916 Y45.798 E26.56854
G1 X23.353 Y45.047 E26.59976
G1 X22.857 Y44.251 E26.63095
G1 X22.43 Y43.416 E26.66214
G1 X22.076 Y42.548 E26.69332
G1 X21.797 Y41.652 E26.72453
G1 X21.596 Y40.736 E26.75573
G1 X21.473 Y39.806 E26.78693
G1 X21.43 Y38.87 E26.81809
G1 X21.467 Y37.932 E26.84931
G1 X21.583 Y37.002 E26.88048
G1 X21.779 Y36.085 E26.91167
G1 X22.052 Y35.187 E26.94289
G1 X22.4 Y34.316 E26.97409
G1 X22.821 Y33.478 E27.00528
G1 X23.312 Y32.679 E27.03647
G1 X23.87 Y31.925 E27.06767
G1 X24.409 Y31.305 E27.09499
G1 X24.881 Y30.811 E27.11772
G1 X30.69 Y25.003 E27.39093
G0 F6000 X30.969 Y25.29
G1 F1200 X31.443 Y24.829 E27.41292
G1 X32.13 Y24.217 E27.44352
G1 X32.868 Y23.666 E27.47416
G1 X33.65 Y23.181 E27.50476
G1 X34.472 Y22.766 E27.53539
G1 X35.327 Y22.425 E27.56601
G1 X36.208 Y22.158 E27.59662
G1 X37.109 Y21.969 E27.62724
G1 X38.023 Y21.859 E27.65786
G1 X38.944 Y21.829 E27.68851
G1 X39.863 Y21.878 E27.71912
G1 X40.774 Y22.007 E27.74972
G1 X41.671 Y22.215 E27.78035
G1 X42.547 Y22.5 E27.81099
G1 X43.394 Y22.86 E27.8416
G1 X44.207 Y23.291 E27.8722
G1 X44.98 Y23.792 E27.90284
G1 X45.706 Y24.358 E27.93346
G1 X46.106 Y24.717 E27.95134
G1 X46.539 Y25.132 E27.97128
G1 X54.213 Y32.806 E28.33225
G1 X56.097 Y34.637 E28.41963
G1 X57.955 Y36.343 E28.50352
G1 X59.875 Y38.008 E28.58805
G1 X61.835 Y39.616 E28.67237
G1 X63.816 Y41.148 E28.75566
G1 X65.857 Y42.634 E28.83963
G1 X67.959 Y44.076 E28.92441
G1 X70.092 Y45.454 E29.00888
G1 X72.235 Y46.753 E29.09222
G1 X74.461 Y48.018 E29.17738
G1 X76.675 Y49.195 E29.26078
G1 X78.919 Y50.307 E29.34408
G1 X81.249 Y51.379 E29.42938
G1 X83.54 Y52.359 E29.51226
G1 X85.961 Y53.312 E29.59879
G1 X88.273 Y54.148 E29.68056
G1 X90.704 Y54.949 E29.7657
G1 X93.108 Y55.669 E29.84916
G1 X95.544 Y56.322 E29.93304
G1 X98.007 Y56.908 E30.01725
G1 X100.513 Y57.43 E30.10239
G1 X102.978 Y57.872 E30.18568
G1 X105.489 Y58.249 E30.27014
G1 X107.995 Y58.553 E30.3541
G1 X110.525 Y58.788 E30.43861
G1 X113.029 Y58.948 E30.52206
G1 X115.539 Y59.038 E30.6056
G1 X118.088 Y59.058 E30.69038
G1 X120.639 Y59.005 E30.77525
G1 X123.133 Y58.883 E30.8583
G1 X125.654 Y58.687 E30.9424
G1 X128.192 Y58.418 E31.02728
G1 X130.657 Y58.087 E31.11001
G1 X133.176 Y57.674 E31.19491
G1 X135.681 Y57.192 E31.27975
G1 X138.138 Y56.645 E31.36347
G1 X140.523 Y56.045 E31.44527
G1 X143.028 Y55.337 E31.53185
G1 X145.457 Y54.577 E31.6165
G1 X147.819 Y53.762 E31.69961
G1 X150.171 Y52.876 E31.7832
G1 X152.523 Y51.914 E31.86772
G1 X154.846 Y50.885 E31.95222
G1 X157.105 Y49.809 E32.03545
G1 X159.37 Y48.648 E32.1201
G1 X161.583 Y47.435 E32.20404
G1 X163.752 Y46.164 E32.28765
G1 X165.915 Y44.814 E32.37246
G1 X168.04 Y43.403 E32.4573
G1 X170.079 Y41.964 E32.5403
G1 X172.1 Y40.449 E32.62431
G1 X174.099 Y38.862 E32.7092
G1 X176.011 Y37.253 E32.79232
G1 X177.918 Y35.554 E32.87726
G1 X179.775 Y33.803 E32.96216
G1 X180.737 Y32.856 E33.00705
G1 X188.198 Y25.394 E33.35802
G1 X188.777 Y24.83 E33.3849
G1 X189.464 Y24.217 E33.41553
G1 X190.202 Y23.667 E33.44614
G1 X190.985 Y23.182 E33.47677
G1 X191.807 Y22.767 E33.5074
G1 X192.661 Y22.425 E33.538
G1 X193.543 Y22.159 E33.56864
G1 X194.444 Y21.97 E33.59926
G1 X195.358 Y21.86 E33.62988
G1 X196.278 Y21.83 E33.66049
G1 X197.197 Y21.879 E33.6911
G1 X198.109 Y22.008 E33.72174
G1 X199.006 Y22.216 E33.75236
G1 X199.881 Y22.501 E33.78297
G1 X200.729 Y22.861 E33.81361
G1 X201.542 Y23.293 E33.84423
G1 X202.314 Y23.793 E33.87482
G1 X203.04 Y24.359 E33.90544
G1 X203.43 Y24.708 E33.92285
G1 X203.898 Y25.156 E33.9444
G1 X209.694 Y30.952 E34.21702
G1 X210.162 Y31.432 E34.23932
G1 X210.775 Y32.119 E34.26994
G1 X211.327 Y32.856 E34.30057
G1 X211.812 Y33.638 E34.33118
G1 X212.228 Y34.459 E34.36179
G1 X212.571 Y35.314 E34.39243
G1 X212.839 Y36.195 E34.42306
G1 X213.029 Y37.095 E34.45365
G1 X213.14 Y38.009 E34.48427
G1 X213.172 Y38.929 E34.51489
G1 X213.123 Y39.849 E34.54553
G1 X212.995 Y40.761 E34.57616
G1 X212.788 Y41.658 E34.60678
G1 X212.505 Y42.534 E34.6374
G1 X212.146 Y43.381 E34.668
G1 X211.715 Y44.195 E34.69863
G1 X211.215 Y44.968 E34.72925
G1 X210.65 Y45.695 E34.75988
